X: 1
T: Wink And She'll Follow You
M: 9/8
L: 1/8
R: slip jig
K: Edor
EEE BAG Bcd | E2B BAF A2F | EEE BAG Bcd | edB BAF A2F :|
|:d2f fdB Bcd | c2e efe cBA |1 d2f fdB Bcd |
edB BAF ~A3 :|2d2f aaa fed | cBA BAF A2F :||
